**harm	**harte	**timestamp	**phrase	**leadinstrument	**kern
*M4/4	*M4/4	*	*	*	*
*G:	*G:	*	*	*	*G:
1r;	N	0	.	r	1r;
=1	=1	=1	=1	=1	=1
*>A_intro	*>A_intro	*>A_intro	*>A_intro	*>A_intro	*>A_intro
1V	D:sus4(b7,9)	18.297	newline	r	1D 1f# 1a
=2	=2	=2	=2	=2	=2
*>B_instrumental	*>B_instrumental	*>B_instrumental	*>B_instrumental	*>B_instrumental	*>B_instrumental
1I	G:maj	20.453	newline	synthesizer	1G 1b 1dd
=3	=3	=3	=3	=3	=3
1I	G:maj	22.615	.	synthesizer	1G 1b 1dd
=4	=4	=4	=4	=4	=4
1v7	D:min7	24.777	.	synthesizer	1D 1f 1a 1cc
=5	=5	=5	=5	=5	=5
1IV	C:maj	26.939	.	synthesizer	1C 1e 1g
=6	=6	=6	=6	=6	=6
1I	G:maj	29.101	newline	synthesizer	1G 1b 1dd
=7	=7	=7	=7	=7	=7
1I	G:maj	31.239	.	synthesizer	1G 1b 1dd
=8	=8	=8	=8	=8	=8
1v7	D:min7	33.377	.	synthesizer	1D 1f 1a 1cc
=9	=9	=9	=9	=9	=9
1IV	C:maj	35.514	.	synthesizer	1C 1e 1g
=10	=10	=10	=10	=10	=10
1I	G:maj	37.652	newline	synthesizer	1G 1b 1dd
=11	=11	=11	=11	=11	=11
1I	G:maj	39.805	.	synthesizer	1G 1b 1dd
=12	=12	=12	=12	=12	=12
1v7	D:min7	41.957	.	synthesizer	1D 1f 1a 1cc
=13	=13	=13	=13	=13	=13
1IV	C:maj	44.11	.	synthesizer	1C 1e 1g
=14	=14	=14	=14	=14	=14
1I	G:maj	46.262	newline	synthesizer	1G 1b 1dd
=15	=15	=15	=15	=15	=15
1I	G:maj	48.396	.	synthesizer	1G 1b 1dd
=16	=16	=16	=16	=16	=16
1v7	D:min7	50.53	.	synthesizer	1D 1f 1a 1cc
=17	=17	=17	=17	=17	=17
1IV	C:maj	52.664	.	synthesizer	1C 1e 1g
=18	=18	=18	=18	=18	=18
*>C_verse	*>C_verse	*>C_verse	*>C_verse	*>C_verse	*>C_verse
1vi	E:min	54.798	newline	voice	1E 1g 1b
=19	=19	=19	=19	=19	=19
1vi	E:min	56.947	.	voice	1E 1g 1b
=20	=20	=20	=20	=20	=20
1-VI	E-:maj	59.096	.	voice	1E- 1g 1b-
=21	=21	=21	=21	=21	=21
1-VI	E-:maj	61.244	.	voice	1E- 1g 1b-
=22	=22	=22	=22	=22	=22
1vi	E:min	63.393	newline	voice	1E 1g 1b
=23	=23	=23	=23	=23	=23
1vi	E:min	65.552	.	voice	1E 1g 1b
=24	=24	=24	=24	=24	=24
1-VI	E-:maj	67.711	.	voice	1E- 1g 1b-
=25	=25	=25	=25	=25	=25
1-VI	E-:maj	69.87	.	voice	1E- 1g 1b-
=26	=26	=26	=26	=26	=26
1vi	E:min	72.029	newline	voice	1E 1g 1b
=27	=27	=27	=27	=27	=27
1vi	E:min	74.168	.	voice	1E 1g 1b
=28	=28	=28	=28	=28	=28
1-VI	E-:maj	76.306	.	voice	1E- 1g 1b-
=29	=29	=29	=29	=29	=29
1-VI	E-:maj	78.445	.	voice	1E- 1g 1b-
=30	=30	=30	=30	=30	=30
1vi	E:min	80.583	newline	voice	1E 1g 1b
=31	=31	=31	=31	=31	=31
1vi	E:min	82.735	.	voice	1E 1g 1b
=32	=32	=32	=32	=32	=32
1-VI	E-:maj	84.887	.	voice	1E- 1g 1b-
=33	=33	=33	=33	=33	=33
1-VI	E-:maj	87.039	.	voice	1E- 1g 1b-
=34	=34	=34	=34	=34	=34
*>B_chorus	*>B_chorus	*>B_chorus	*>B_chorus	*>B_chorus	*>B_chorus
1I	G:maj	89.19	newline	voice	1G 1b 1dd
=35	=35	=35	=35	=35	=35
1I	G:maj	91.357	.	voice	1G 1b 1dd
=36	=36	=36	=36	=36	=36
1v7	D:min7	93.523	.	voice	1D 1f 1a 1cc
=37	=37	=37	=37	=37	=37
1IV	C:maj	95.689	.	voice	1C 1e 1g
=38	=38	=38	=38	=38	=38
1I	G:maj	97.855	newline	voice	1G 1b 1dd
=39	=39	=39	=39	=39	=39
1I	G:maj	99.995	.	voice	1G 1b 1dd
=40	=40	=40	=40	=40	=40
1v7	D:min7	102.134	.	voice	1D 1f 1a 1cc
=41	=41	=41	=41	=41	=41
1IV	C:maj	104.274	.	voice	1C 1e 1g
=42	=42	=42	=42	=42	=42
1I	G:maj	106.414	newline	voice	1G 1b 1dd
=43	=43	=43	=43	=43	=43
1I	G:maj	108.565	.	voice	1G 1b 1dd
=44	=44	=44	=44	=44	=44
1v7	D:min7	110.716	.	voice	1D 1f 1a 1cc
=45	=45	=45	=45	=45	=45
1IV	C:maj	112.868	.	voice	1C 1e 1g
=46	=46	=46	=46	=46	=46
1I	G:maj	115.019	newline	voice	1G 1b 1dd
=47	=47	=47	=47	=47	=47
1I	G:maj	117.164	.	voice	1G 1b 1dd
=48	=48	=48	=48	=48	=48
1v7	D:min7	119.31	.	voice	1D 1f 1a 1cc
=49	=49	=49	=49	=49	=49
1IV	C:maj	121.455	.	voice	1C 1e 1g
=50	=50	=50	=50	=50	=50
*>C_verse	*>C_verse	*>C_verse	*>C_verse	*>C_verse	*>C_verse
1vi	E:min	123.6	newline	voice	1E 1g 1b
=51	=51	=51	=51	=51	=51
1vi	E:min	125.761	.	voice	1E 1g 1b
=52	=52	=52	=52	=52	=52
1-VI	E-:maj	127.921	.	voice	1E- 1g 1b-
=53	=53	=53	=53	=53	=53
1-VI	E-:maj	130.082	.	voice	1E- 1g 1b-
=54	=54	=54	=54	=54	=54
1vi	E:min	132.242	newline	voice	1E 1g 1b
=55	=55	=55	=55	=55	=55
1vi	E:min	134.396	.	voice	1E 1g 1b
=56	=56	=56	=56	=56	=56
1-VI	E-:maj	136.551	.	voice	1E- 1g 1b-
=57	=57	=57	=57	=57	=57
1-VI	E-:maj	138.705	.	voice	1E- 1g 1b-
=58	=58	=58	=58	=58	=58
1vi	E:min	140.859	newline	voice	1E 1g 1b
=59	=59	=59	=59	=59	=59
1vi	E:min	143.004	.	voice	1E 1g 1b
=60	=60	=60	=60	=60	=60
1-VI	E-:maj	145.149	.	voice	1E- 1g 1b-
=61	=61	=61	=61	=61	=61
1-VI	E-:maj	147.294	.	voice	1E- 1g 1b-
=62	=62	=62	=62	=62	=62
1vi	E:min	149.439	newline	voice	1E 1g 1b
=63	=63	=63	=63	=63	=63
1vi	E:min	151.579	.	voice	1E 1g 1b
=64	=64	=64	=64	=64	=64
1-VI	E-:maj	153.719	.	voice	1E- 1g 1b-
=65	=65	=65	=65	=65	=65
1-VI	E-:maj	155.858	.	voice	1E- 1g 1b-
=66	=66	=66	=66	=66	=66
*>B_chorus	*>B_chorus	*>B_chorus	*>B_chorus	*>B_chorus	*>B_chorus
1I	G:maj	157.998	newline	voice	1G 1b 1dd
=67	=67	=67	=67	=67	=67
1I	G:maj	160.151	.	voice	1G 1b 1dd
=68	=68	=68	=68	=68	=68
1v7	D:min7	162.304	.	voice	1D 1f 1a 1cc
=69	=69	=69	=69	=69	=69
1IV	C:maj	164.457	.	voice	1C 1e 1g
=70	=70	=70	=70	=70	=70
1I	G:maj	166.61	newline	voice	1G 1b 1dd
=71	=71	=71	=71	=71	=71
1I	G:maj	168.764	.	voice	1G 1b 1dd
=72	=72	=72	=72	=72	=72
1v7	D:min7	170.918	.	voice	1D 1f 1a 1cc
=73	=73	=73	=73	=73	=73
1IV	C:maj	173.072	.	voice	1C 1e 1g
=74	=74	=74	=74	=74	=74
1I	G:maj	175.226	newline	voice	1G 1b 1dd
=75	=75	=75	=75	=75	=75
1I	G:maj	177.373	.	voice	1G 1b 1dd
=76	=76	=76	=76	=76	=76
1v7	D:min7	179.521	.	voice	1D 1f 1a 1cc
=77	=77	=77	=77	=77	=77
1IV	C:maj	181.669	.	voice	1C 1e 1g
=78	=78	=78	=78	=78	=78
1I	G:maj	183.816	newline	voice	1G 1b 1dd
=79	=79	=79	=79	=79	=79
1I	G:maj	185.972	.	voice	1G 1b 1dd
=80	=80	=80	=80	=80	=80
1v7	D:min7	188.127	.	voice	1D 1f 1a 1cc
=81	=81	=81	=81	=81	=81
1IV	C:maj	190.282	.	voice	1C 1e 1g
=82	=82	=82	=82	=82	=82
*>B_instrumental	*>B_instrumental	*>B_instrumental	*>B_instrumental	*>B_instrumental	*>B_instrumental
1I	G:maj	192.438	newline	synthesizer	1G 1b 1dd
=83	=83	=83	=83	=83	=83
1I	G:maj	194.563	.	synthesizer	1G 1b 1dd
=84	=84	=84	=84	=84	=84
1V7	D:11	196.689	.	synthesizer	1D 1f# 1a 1cc
=85	=85	=85	=85	=85	=85
1IV	C:maj	198.815	.	synthesizer	1C 1e 1g
=86	=86	=86	=86	=86	=86
1I	G:maj	200.941	newline	synthesizer	1G 1b 1dd
=87	=87	=87	=87	=87	=87
1I	G:maj	203.089	.	synthesizer	1G 1b 1dd
=88	=88	=88	=88	=88	=88
1V7	D:11	205.238	.	synthesizer	1D 1f# 1a 1cc
=89	=89	=89	=89	=89	=89
1IV	C:maj	207.387	.	synthesizer	1C 1e 1g
=90	=90	=90	=90	=90	=90
1I	G:maj	209.536	newline	synthesizer	1G 1b 1dd
=91	=91	=91	=91	=91	=91
1I	G:maj	211.69	.	synthesizer	1G 1b 1dd
=92	=92	=92	=92	=92	=92
1V7	D:11	213.844	.	synthesizer	1D 1f# 1a 1cc
=93	=93	=93	=93	=93	=93
1IV	C:maj	215.998	.	synthesizer	1C 1e 1g
=94	=94	=94	=94	=94	=94
1I	G:maj	218.152	newline	synthesizer	1G 1b 1dd
=95	=95	=95	=95	=95	=95
1I	G:maj	220.3	.	synthesizer	1G 1b 1dd
=96	=96	=96	=96	=96	=96
1V7	D:11	222.447	.	synthesizer	1D 1f# 1a 1cc
=97	=97	=97	=97	=97	=97
1IV	C:maj	224.594	.	synthesizer	1C 1e 1g
=98	=98	=98	=98	=98	=98
*>B_chorus	*>B_chorus	*>B_chorus	*>B_chorus	*>B_chorus	*>B_chorus
1I	G:maj	226.742	newline	voice	1G 1b 1dd
=99	=99	=99	=99	=99	=99
1I	G:maj	228.902	.	voice	1G 1b 1dd
=100	=100	=100	=100	=100	=100
1v7	D:min7	231.063	.	voice	1D 1f 1a 1cc
=101	=101	=101	=101	=101	=101
1IV	C:maj	233.224	.	voice	1C 1e 1g
=102	=102	=102	=102	=102	=102
*>_fadeout	*>_fadeout	*>_fadeout	*>_fadeout	*>_fadeout	*>_fadeout
1I	G:maj	235.385	newline	voice	1G 1b 1dd
=103	=103	=103	=103	=103	=103
1I	G:maj	237.527	.	voice	1G 1b 1dd
=104	=104	=104	=104	=104	=104
1v7	D:min7	239.67	.	voice	1D 1f 1a 1cc
=105	=105	=105	=105	=105	=105
1IV	C:maj	241.812	.	voice	1C 1e 1g
=106	=106	=106	=106	=106	=106
1I	G:maj	243.954	newline	voice	1G 1b 1dd
=107	=107	=107	=107	=107	=107
1I	G:maj	246.092	.	voice	1G 1b 1dd
=108	=108	=108	=108	=108	=108
1v7	D:min7	248.229	.	voice	1D 1f 1a 1cc
=109	=109	=109	=109	=109	=109
1IV	C:maj	250.366	.	voice	1C 1e 1g
=110	=110	=110	=110	=110	=110
1I	G:maj	252.504	newline	voice	1G 1b 1dd
=111	=111	=111	=111	=111	=111
1I	G:maj	253.076	.	voice	1G 1b 1dd
=112	=112	=112	=112	=112	=112
1v7	D:min7	253.648	.	voice	1D 1f 1a 1cc
=113	=113	=113	=113	=113	=113
1IV	C:maj	254.22	.	voice	1C 1e 1g
1r;	N	254.793	.	r	1r;
1r;	N	257.541	.	r	1r;
*-	*-	*-	*-	*-	*-
!!!OTL: Dirty Water
!!!COC: Rock And Hyde
!!!BillboardChartDate: 1987/05/23
!!!BillboardPeak: 61
!!!BillboardWeeksOnChart: 10
!!!SampleTargetRank: 64
!!!SampleActualRank: 65
!!!SampleID#: 0929
!!!RDF**harmony: **recip + pitch class of root + harmonic quality
!!!RDF**harte: Chris Harte's syntax, used by MIREX
!!!RDF**phrase: newline = linebreak in original McGill transcription
!!!RDF**timestamp: McGill audio timestamp in seconds
!!!RDF**leadinstrument: original McGill primary instrumentation annotation
!!!RDT: 2017/01/12/
!!!ENC: Nathaniel Condit-Schultz
!!!EST: Awating manual error checking and editing.
